X:1
T:Title
%%score ( 1 2 ) { ( 3 5 ) | 4 }
L:1/8
Q:1/4=93
M:6/8
K:F
V:1 treble nm="Drawbar Organ, Soprano"
V:2 treble 
V:3 treble nm="Church Organ, Langkawi, 11.11.11.11"
V:5 treble 
V:4 bass 
V:1
 F2 F F2 F | G3 z3 | .A3 z3 | c6 | AGF EFG | z3 A3 | .c3 z3 | [Ec]6 | .A3 z3 | %9
w: By~Albert~Lowe~(?\-1886) * * *|||||||||
 [B,D]2 [B,E] [A,F]3 | z3 .B3 | [F_e]6 | [^Fd]2 [Fc] [GB]2 [DB] | c3 z3 | F2 F [Fd]3- | %15
w: ||||||
 [Fd]3 [Ec]3 | F6- | F3 z3 |] %18
w: |||
V:2
 x6 | FED .[EG]3 | C-[CG]F [FA][EG][DF] | EFG .F3 | x6 | AGF EFG | ^F-[F=B][Fc] [Ge]2 [=Fd] | x6 | %8
 F-[FB][EG] F2 [A,C] | x6 | FG[FA] F-[Fc][Fd] | x6 | x6 | EFG .[FA]3 | x6 | x6 | x6 | x6 |] %18
V:3
 FED CB,A, | C3 .C3 | C[K:bass]B,A, D2 F, | G,A,B, .A,3 | A,G,F, E,F,G, | A,[K:treble]ED ^CDE | %6
 _EDC CA,=B, | C6 | CD[K:bass]B, A,2 F, | F,2 G, A,3 | A,2 C B,2 B, | F,G,A, .B,3 | %12
 A,2[K:treble] D D2 G, | C3 .C3 | z3 =B,3- | B,3 z3 | A,6- | A,3 z3 |] %18
V:4
 F,2 B, A,G,F, | C,3 .C,3 | F,2 F, D,2 D, | C,3 .F,3 | z6 | z3 A,3 | A,2 A, G,2 G, | C,6 | %8
 F,2 F, .F,3 | z2 F, F,3 | F,2 _E, D,2 D, | C,3 .B,,3 | D,2 D, .G,3 | C,D,E, .F,3 | z3 [G,,F,]3 | %15
 G,,3 [C,G,]3 | F,6- | F,3 z3 |] %18
V:5
 x6 | x6 | x[K:bass] x5 | x6 | x6 | x[K:treble] x5 | x6 | x6 | x2[K:bass] x4 | x6 | x6 | x6 | %12
 x2[K:treble] x4 | x6 | F,2 F, z3 | F,3 _B,3 | x6 | x6 |] %18

